ids-wordpress/site-IdS/assets/images/icones redes sociais/behance.svg

<svg width="25" height="25" viewBox="0 0 25 25" fill="none" xmlns="http://www.w3.org/2000/svg">
<g clip-path="url(#clip0_565_472)">
<path d="M16.1377 11.147C16.8992 11.147 17.509 11.3677 17.9531 11.7476C18.3415 12.0799 18.6064 12.5369 18.7344 13.0825L18.7803 13.3228C18.8174 13.5641 18.8325 13.8887 18.8271 14.3403H14.8125L14.8145 14.3872C14.831 14.7966 14.9501 15.1103 15.1318 15.3394C15.3135 15.5683 15.5552 15.7101 15.8115 15.7788C16.313 15.9133 16.8789 15.77 17.1729 15.4448H18.6709C18.4287 16.0665 17.6561 16.855 16.1865 16.855C15.4262 16.855 14.7429 16.641 14.25 16.188C13.7577 15.7354 13.4492 15.0386 13.4492 14.062C13.4493 13.0937 13.737 12.3657 14.2139 11.8804C14.6908 11.395 15.3621 11.147 16.1377 11.147ZM10.3496 9.45557L10.5957 9.46631C11.1514 9.50973 11.5788 9.67164 11.8926 9.90088C12.251 10.1627 12.4639 10.5149 12.5498 10.8882C12.7221 11.6369 12.3851 12.4685 11.6904 12.8237L11.5977 12.8706L11.6953 12.9058C12.5351 13.2116 12.9758 14.1942 12.7861 15.106C12.6916 15.5601 12.44 15.9952 12.0049 16.3169C11.5697 16.6385 10.9475 16.8491 10.1074 16.8491H6.91895V9.45557H10.3496ZM8.3291 15.4526H10.0449C10.4336 15.4526 10.7241 15.3564 10.918 15.2075C11.1124 15.0582 11.2078 14.8569 11.2031 14.6528C11.1938 14.2422 10.7879 13.855 10.0693 13.855H8.3291V15.4526ZM16.1377 12.2456C15.7636 12.2457 15.4675 12.3437 15.251 12.5396C15.0348 12.7353 14.9034 13.0238 14.8496 13.3931L14.8418 13.4448H17.4248L17.4219 13.397C17.3949 13.0002 17.248 12.7099 17.0176 12.52C16.788 12.3309 16.4799 12.2456 16.1377 12.2456ZM8.3291 12.4448H10.166C10.8098 12.4448 11.201 12.0573 11.207 11.6509C11.2099 11.448 11.1148 11.2468 10.916 11.0981C10.718 10.9502 10.4183 10.855 10.0098 10.855H8.3291V12.4448ZM17.8291 9.44482V10.355H14.4189V9.44482H17.8291Z" fill="#3A3A3A" stroke="#F3F3F5" stroke-width="0.09"/>
</g>
<rect x="3.62402" y="3.6499" width="18.5" height="18.5" rx="1.25" stroke="#3A3A3A" stroke-width="1.5"/>
<defs>
<clipPath id="clip0_565_472">
<rect width="12" height="12" fill="white" transform="translate(6.87402 6.8999)"/>
</clipPath>
</defs>
</svg>

<svg xmlns="http://www.w3.org/2000/svg" width="25" height="25" fill="none"><g clip-path="url(#a)"><path fill="#3A3A3A" stroke="#F3F3F5" stroke-width=".09" d="M16.138 11.147c.761 0 1.371.22 1.815.6.389.333.653.79.781 1.335l.046.24c.037.242.052.567.047 1.018h-4.015l.003.047c.016.41.135.723.317.952.181.23.423.371.68.44.501.134 1.067-.009 1.36-.334h1.499c-.242.622-1.015 1.41-2.485 1.41-.76 0-1.443-.214-1.936-.667-.492-.453-.8-1.15-.8-2.126 0-.968.287-1.696.764-2.182.477-.485 1.148-.733 1.924-.733ZM10.35 9.456l.246.01c.555.044.983.206 1.297.435.358.262.57.614.657.987.172.749-.165 1.58-.86 1.936l-.092.047.097.035c.84.306 1.28 1.288 1.091 2.2-.094.454-.346.89-.781 1.21-.435.323-1.058.533-1.898.533H6.92V9.456h3.43Zm-2.02 5.997h1.715c.389 0 .68-.097.873-.245.194-.15.29-.351.285-.555-.01-.41-.415-.798-1.134-.798H8.33v1.598Zm7.808-3.207c-.374 0-.67.098-.887.294-.216.195-.348.484-.401.853l-.008.052h2.583l-.003-.048c-.027-.397-.174-.687-.404-.877-.23-.19-.538-.274-.88-.274Zm-7.809.199h1.837c.644 0 1.035-.388 1.041-.794a.675.675 0 0 0-.291-.553c-.198-.148-.498-.243-.906-.243H8.33v1.59Zm9.5-3v.91h-3.41v-.91h3.41Z"/></g><rect width="18.5" height="18.5" x="3.624" y="3.65" stroke="#3A3A3A" stroke-width="1.5" rx="1.25"/><defs><clipPath id="a"><path fill="#fff" d="M6.874 6.9h12v12h-12z"/></clipPath></defs></svg>
